X:1
T:Title
%%score { ( 1 4 ) | ( 2 3 ) }
L:1/8
Q:1/4=100
M:4/4
K:Eb
V:1 treble nm="Grand Piano"
V:4 treble 
V:2 bass 
V:3 bass 
V:1
 G2 G2 F2 E2 | B3 D D4 | E2 E2 A2 G2 | [EG]4 F4 | [CEF]2 [CE_G]2 [CE=G]2 [CEF]2 | %5
w: H.~P.~Danks * * *|||||
 [DF]2 [DB]2 [Fd]4 | d2 c2 G2 =A2 | B4 A4 | G2 G2 F2 E2 | B3 D D4 | E2 E2 A2 G2 | z4 [DF]4 | %12
w: |||||||
 E3 F G2 [FB]2 | [Ee]2 [EG]2 [EA]2 Bc | E2 [EG]2 [DG]3 [DF] | E8 |] %16
w: ||||
V:2
 [E,B,E]2 [B,E]2 [A,B,D]2 [G,B,]2 | [F,A,D]3 [F,A,B,] [F,A,B,]4 | %2
 [G,B,]2 [E,G,B,]2 [E,CE]2 [E,B,E]2 | z4 D4 | =A,,2 A,,2 A,,2 A,,2 | [B,,B,]2 [B,,B,]2 [B,,B,]4 | %6
 [F,=A,E]2 [F,A,E]2 [F,B,E]2 [F,CE]2 | [B,,B,]8 | [E,B,E]2 [B,E]2 [A,B,D]2 [G,B,]2 | %9
 [F,A,D]3 [F,A,B,] [F,A,B,]4 | [E,G,B,]2 [E,G,B,]2 [E,CE]2 [E,B,E]2 | [B,,B,]3 [B,,B,] B,2 z2 | %12
 [E,G,]3 [E,A,E] [E,B,E]2 [D,B,]2 | [C,G,]2 [_D,B,]2 [C,A,]2 [B,,G,][=A,,_G,] | %14
 [B,,G,]2 [B,,B,]2 [B,,B,]3 [B,,A,] | [E,G,]8 |] %16
V:3
 x8 | x8 | x8 | [B,,B,]8 | x8 | x8 | x8 | x8 | x8 | x8 | x8 | z4 B,,4 | x8 | x8 | x8 | x8 |] %16
V:4
 x8 | x8 | x8 | x8 | x8 | x8 | x8 | D8 | x8 | x8 | x8 | [EG]3 [DF] z2 A,2 | x8 | z4 z2 E2 | x8 | %15
 x8 |] %16

